!!!!SEGMENT: pl-sa--l-1643--043-002_anonim--adoro-te-supplex-latens-deitas-2da-pars.krn
!!!cenid: 16xx:1399
!!!COM: Anonim
!!!COM-rismid: pe30004985
!!!CDT:
!!!CNT:
!!!OPR: Adoro te supplex, latens deitas
!!!OTL: 2da Pars
!!!OMV: 002
!!!PDT:
!!!AGN: Sacred
!!!SMS-siglum: PL-SA
!!!SMS-shelfmark: L 1643
!!!SMS-shelfwork: 043-002 M
!!!SMS-variant:
!!!SMS-altvar:
!!!NIFC-rismid: 1001063146
!!!URL-scan: http://repozytorium.nifc.pl/skany/pl-sa-nut--l1643
!!!ONB-nifc: UWAGA: 8 ksiąg. Primi chori: 1mus Cantus (72-74), C 2dus (72-74), C 3tius (70-72), Bassus (67-69); Secondi chori: Primus Cantus (68-70), C 2dus (71-73), Altus (69-71), Bassus (69-71). UWAGA: metrum 2/2 i 3/2. Pliki dla osobnych 4 części. Nie dodawać pustych linii, chyba że w rękopisie pojawiają się dodatkowe oznaczenia dotyczące pełnej obsady (a 4, a 8 itp.)
**kern	**text	**text	**kern	**text	**text	**kern	**text	**text	**kern	**text	**text	**kern	**text	**text	**kern	**text	**text	**kern	**text	**text	**kern	**text	**text
*part8	*part8	*part8	*part7	*part7	*part7	*part6	*part6	*part6	*part5	*part5	*part5	*part4	*part4	*part4	*part3	*part3	*part3	*part2	*part2	*part2	*part1	*part1	*part1
*staff8	*staff8	*staff8	*staff7	*staff7	*staff7	*staff6	*staff6	*staff6	*staff5	*staff5	*staff5	*staff4	*staff4	*staff4	*staff3	*staff3	*staff3	*staff2	*staff2	*staff2	*staff1	*staff1	*staff1
*group2	*	*	*group2	*	*	*group2	*	*	*group2	*	*	*group1	*	*	*group1	*	*	*group1	*	*	*group1	*	*
*Iempty	*	*	*Iempty	*	*	*Iempty	*	*	*Iempty	*	*	*Iempty	*	*	*Iempty	*	*	*Iempty	*	*	*Iempty	*	*
*I"Baſsus 2di Chori	*	*	*I"Altus secundi Chori.	*	*	*I"Cantus 2dus Secundi Chori.	*	*	*I"Primus Cantus 2di Chori	*	*	*I"Bassus Primi Chori.	*	*	*I"Cantus 3tius Primi Chori	*	*	*I"Cantus 2dus Primi Chori.	*	*	*I"Im(us) Cantus Primi Chori	*	*
*I'Coro 2 B	*	*	*I'Coro 2 A	*	*	*I'Coro 2 S 2	*	*	*I'Coro 2 S 1	*	*	*I'Coro 1 B	*	*	*I'Coro 1 S 3	*	*	*I'Coro 1 S 2	*	*	*I'Coro 1 S 1	*	*
*clefC3	*	*	*clefC2	*	*	*clefC1	*	*	*clefG2	*	*	*clefC3	*	*	*clefC2	*	*	*clefC1	*	*	*clefG2	*	*
*k[]	*	*	*k[]	*	*	*k[]	*	*	*k[]	*	*	*k[]	*	*	*k[]	*	*	*k[]	*	*	*k[]	*	*
*d:	*	*	*d:	*	*	*d:	*	*	*d:	*	*	*d:	*	*	*d:	*	*	*d:	*	*	*d:	*	*
*M2/2	*	*	*M2/2	*	*	*M2/2	*	*	*M2/2	*	*	*M2/2	*	*	*M2/2	*	*	*M2/2	*	*	*M2/2	*	*
*met(C|)	*	*	*met(C|)	*	*	*met(C|)	*	*	*met(C|)	*	*	*met(C|)	*	*	*met(C|)	*	*	*met(C|)	*	*	*met(C|)	*	*
=1-	=1-	=1-	=1-	=1-	=1-	=1-	=1-	=1-	=1-	=1-	=1-	=1-	=1-	=1-	=1-	=1-	=1-	=1-	=1-	=1-	=1-	=1-	=1-
!LO:TX:t=2da\nPars	!	!	!LO:TX:t=2da\nPars	!	!	!LO:TX:t=2da Pars.	!	!	!LO:TX:t=2da\nPars	!	!	!LO:TX:t=2da\nPars	!	!	!LO:TX:t=2da Pars.	!	!	!LO:TX:t=2da Pars	!LO:TX:t=2da Pars	!	!	!	!
1a	Vi-	O	1e	Vi-	O	1cc	Vi-	O	1ee	Vi-	O	1A	Vi-	O	1a	Vi-	O	1cc	Vi-	O	1ee	Vi-	O
=2-	=2-	=2-	=2-	=2-	=2-	=2-	=2-	=2-	=2-	=2-	=2-	=2-	=2-	=2-	=2-	=2-	=2-	=2-	=2-	=2-	=2-	=2-	=2-
2a\	-sus	me-	2a\	-sus	me-	2cc\	-sus	me-	2ee\	-sus	me-	2A/	-sus	me-	2a\	-sus	me-	2cc\	-sus,	me-	2ee\	-ſus	me-
1d\	gus-	-mo-	1f\	gus-	-mo-	1a\	gus-	-mo-	1dd\	gus-	-mo-	1d\	gus-	-mo-	1a\	gus-	-mo-	1dd\	gus-	-mo-	1ff\	gus-	-mo-
=3-	=3-	=3-	=3-	=3-	=3-	=3-	=3-	=3-	=3-	=3-	=3-	=3-	=3-	=3-	=3-	=3-	=3-	=3-	=3-	=3-	=3-	=3-	=3-
2g\	-tus	-ri-	2d/	-tus	-ri-	2b\	-tus	-ri-	2dd\	-tus	-ri-	2G/	-tus	-ri-	2g\	-tus	-ri-	2dd\	-tus,	-ri-	2gg\	-tus	-ri-
=4-	=4-	=4-	=4-	=4-	=4-	=4-	=4-	=4-	=4-	=4-	=4-	=4-	=4-	=4-	=4-	=4-	=4-	=4-	=4-	=4-	=4-	=4-	=4-
1c	tac-	-a-	1g	tac-	-a-	1a	tac-	-a-	1ee	tac-	-a-	1c	tac-	-a-	1g	tac-	-a-	2.cc\	tac-	-a-	1gg	tac-	-a-
.	.	.	.	.	.	.	.	.	.	.	.	.	.	.	.	.	.	4dd\	.	.	.	.	.
=5-	=5-	=5-	=5-	=5-	=5-	=5-	=5-	=5-	=5-	=5-	=5-	=5-	=5-	=5-	=5-	=5-	=5-	=5-	=5-	=5-	=5-	=5-	=5-
2c/	-tus	-le	2g\	-tus	-le	2cc\	-tus	-le	2ee\	-tus	-le	2c/	-tus	-le	2g\	-tus	-le	2ee\	-tus,	-le	2ee\	-tus	-le
2r	.	.	2r	.	.	2r	.	.	2r	.	.	1f\	in	mor-	1a\	in	mor-	1cc\	in	mor-	1ff\	in	mor-
=6-	=6-	=6-	=6-	=6-	=6-	=6-	=6-	=6-	=6-	=6-	=6-	=6-	=6-	=6-	=6-	=6-	=6-	=6-	=6-	=6-	=6-	=6-	=6-
0r	.	.	0r	.	.	0r	.	.	0r	.	.	.	.	.	.	.	.	.	.	.	.	.	.
.	.	.	.	.	.	.	.	.	.	.	.	2f\	te	-tis	2f\	te	-tis	2cc\	te	-tis	2ff\	te	-tis
=7-	=7-	=7-	=7-	=7-	=7-	=7-	=7-	=7-	=7-	=7-	=7-	=7-	=7-	=7-	=7-	=7-	=7-	=7-	=7-	=7-	=7-	=7-	=7-
.	.	.	.	.	.	.	.	.	.	.	.	2c/	fal-	Do-	2g\	fa-	Do-	2cc\	fa-	Do-	2ee\	fal-	Do-
.	.	.	.	.	.	.	.	.	.	.	.	2d\	-li-	-mi-	2f\	-li-	-mi-	4a\	-li-	-mi-	2dd\	-li-	-mi-
.	.	.	.	.	.	.	.	.	.	.	.	.	.	.	.	.	.	4b\	.	.	.	.	.
=8-	=8-	=8-	=8-	=8-	=8-	=8-	=8-	=8-	=8-	=8-	=8-	=8-	=8-	=8-	=8-	=8-	=8-	=8-	=8-	=8-	=8-	=8-	=8-
2r	.	.	2r	.	.	2r	.	.	2r	.	.	1c	-tur	-ni	1g	-tur	-ni	1cc	-tur	-ni	1ee	-tur	-ni
1c\	in	mor-	1g\	in	mor-	1cc\	in	mor-	1ee\	in	mor-	.	.	.	.	.	.	.	.	.	.	.	.
=9-	=9-	=9-	=9-	=9-	=9-	=9-	=9-	=9-	=9-	=9-	=9-	=9-	=9-	=9-	=9-	=9-	=9-	=9-	=9-	=9-	=9-	=9-	=9-
.	.	.	.	.	.	.	.	.	.	.	.	0r	.	.	0r	.	.	0r	.	.	0r	.	.
2F/	te	-tis	2a\	te	-tis	2cc\	te	-tis	2ff\	te	-tis	.	.	.	.	.	.	.	.	.	.	.	.
=10-	=10-	=10-	=10-	=10-	=10-	=10-	=10-	=10-	=10-	=10-	=10-	=10-	=10-	=10-	=10-	=10-	=10-	=10-	=10-	=10-	=10-	=10-	=10-
2c/	fal-	Do-	2g\	fal-	Do-	2cc\	fal-	Do-	2ee\	fal-	Do-	.	.	.	.	.	.	.	.	.	.	.	.
2d\	-li-	-mi-	2f\	-li-	-mi-	4a\	-li-	-mi-	2dd\	-li-	-mi-	.	.	.	.	.	.	.	.	.	.	.	.
.	.	.	.	.	.	4b\	.	.	.	.	.	.	.	.	.	.	.	.	.	.	.	.	.
=11-	=11-	=11-	=11-	=11-	=11-	=11-	=11-	=11-	=11-	=11-	=11-	=11-	=11-	=11-	=11-	=11-	=11-	=11-	=11-	=11-	=11-	=11-	=11-
1c	-tur	-ni	1g	-tur	-ni	1cc	-tur	-ni	1ee	-tur	-ni	2r	.	.	2r	.	.	2r	.	.	2r	.	.
.	.	.	.	.	.	.	.	.	.	.	.	1c\	Sed	Pa-	1g\	Sed	Pa-	1cc\	Sed	Pa-	1ee\	Sed	Pa-
=12-	=12-	=12-	=12-	=12-	=12-	=12-	=12-	=12-	=12-	=12-	=12-	=12-	=12-	=12-	=12-	=12-	=12-	=12-	=12-	=12-	=12-	=12-	=12-
00r	.	.	00r	.	.	00r	.	.	00r	.	.	.	.	.	.	.	.	.	.	.	.	.	.
.	.	.	.	.	.	.	.	.	.	.	.	2A/	au-	-nis	2a\	au-	-nis	2cc\	au-	-nis	2ff\	au-	-nis
=13-	=13-	=13-	=13-	=13-	=13-	=13-	=13-	=13-	=13-	=13-	=13-	=13-	=13-	=13-	=13-	=13-	=13-	=13-	=13-	=13-	=13-	=13-	=13-
.	.	.	.	.	.	.	.	.	.	.	.	2B-X/	-di-	Ve-	2f\	-di-	Ve-	2dd\	-di-	Ve-	2dd\	-di-	Ve-
!	!	!	!	!	!	!	!	!	!	!	!	!LO:SIC:v:t=custos F	!	!	!	!	!	!	!	!	!	!	!
.	.	.	.	.	.	.	.	.	.	.	.	2G/	-tu	-rus	2g\	-tu	-rus	2dd\	-tu	-rus	2ee\	-tu	-rus
!	!	!	!	!	!	!	!	!	!	!	!	!LO:LB:g=original	!	!	!	!	!	!	!	!	!	!	!
=14-	=14-	=14-	=14-	=14-	=14-	=14-	=14-	=14-	=14-	=14-	=14-	=14-	=14-	=14-	=14-	=14-	=14-	=14-	=14-	=14-	=14-	=14-	=14-
.	.	.	.	.	.	.	.	.	.	.	.	4F/	so-	Vi-	1a	so-	Vi-	4a\	so-	Vi-	1ff	so-	Vi-
.	.	.	.	.	.	.	.	.	.	.	.	4G/	.	.	.	.	.	4b\	.	.	.	.	.
.	.	.	.	.	.	.	.	.	.	.	.	4A/	.	.	.	.	.	2cc\	.	.	.	.	.
.	.	.	.	.	.	.	.	.	.	.	.	4Bny/	.	.	.	.	.	.	.	.	.	.	.
=15-	=15-	=15-	=15-	=15-	=15-	=15-	=15-	=15-	=15-	=15-	=15-	=15-	=15-	=15-	=15-	=15-	=15-	=15-	=15-	=15-	=15-	=15-	=15-
.	.	.	.	.	.	.	.	.	.	.	.	2c/	-lo	-tam	2g\	-lo	.	2cc\	-lo	-tam	2ee\	-lo	-tam
!	!	!	!	!	!	!	!	!	!	!	!	!	!	!	!	!	!	!LO:SIC:v:t=custos b-	!	!	!	!	!
.	.	.	.	.	.	.	.	.	.	.	.	2F/	in	prae-	2a\	in	-tam	2cc\	in	prae-	2ff\	.	prae-
!	!	!	!	!	!	!	!	!	!	!	!	!	!	!	!	!	!	!LO:LB:g=original	!	!	!	!	!
=16-	=16-	=16-	=16-	=16-	=16-	=16-	=16-	=16-	=16-	=16-	=16-	=16-	=16-	=16-	=16-	=16-	=16-	=16-	=16-	=16-	=16-	=16-	=16-
0r	.	.	0r	.	.	0r	.	.	0r	.	.	1G	te	-stans	2.g\	te	prae-	1b-X	te	-stans	2ee\	in	-stans
.	.	.	.	.	.	.	.	.	.	.	.	.	.	.	.	.	.	.	.	.	2.dd\	te	ho-
.	.	.	.	.	.	.	.	.	.	.	.	.	.	.	4f\	.	-stans	.	.	.	.	.	.
=17-	=17-	=17-	=17-	=17-	=17-	=17-	=17-	=17-	=17-	=17-	=17-	=17-	=17-	=17-	=17-	=17-	=17-	=17-	=17-	=17-	=17-	=17-	=17-
.	.	.	.	.	.	.	.	.	.	.	.	2.A/	cre-	ho-	2.e/	cre-	ho-	2.a\	cre-	ho-	.	.	.
.	.	.	.	.	.	.	.	.	.	.	.	.	.	.	.	.	.	.	.	.	8cc\L	cre-	.
.	.	.	.	.	.	.	.	.	.	.	.	.	.	.	.	.	.	.	.	.	8b\J	.	.
!	!	!	!	!	!	!	!	!	!	!	!	!	!	!	!	!	!	!	!	!	!LO:SIC:v:t=custos dd	!	!
!	!	!	!	!	!	!	!	!	!	!	!	!	!	!	!	!	!	!	!	!	!LO:TX:a:t=P:problem:# above	!	!
.	.	.	.	.	.	.	.	.	.	.	.	.	.	.	.	.	.	.	.	.	2cc#X\	-di-	-mi-
!	!	!	!	!	!	!	!	!	!	!	!	!	!	!	!LO:SIC:v:t=custos f#	!	!	!	!	!	!	!	!
.	.	.	.	.	.	.	.	.	.	.	.	4A/	-di-	-mi-	4e/	-di-	-mi-	4a\	-di-	-mi-	.	.	.
!	!	!	!	!	!	!	!	!	!	!	!	!	!	!	!LO:LB:g=original	!	!	!	!	!	!LO:LB:g=original	!	!
=18-	=18-	=18-	=18-	=18-	=18-	=18-	=18-	=18-	=18-	=18-	=18-	=18-	=18-	=18-	=18-	=18-	=18-	=18-	=18-	=18-	=18-	=18-	=18-
!	!	!	!	!	!	!	!	!	!	!	!	!	!	!	!LO:TX:b:t=P:problem:# below	!	!	!	!	!	!	!	!
2r	.	.	2r	.	.	2r	.	.	2r	.	.	1d	-tur	-ni	1f#X	-tur	-ni	1a	-tur	-ni	1dd	-tur	-ni
1d\	Sed	Pa-	1f\	Sed	Pa-	1dd\	Sed	Pa-	1dd\	sed	Pa-	.	.	.	.	.	.	.	.	.	.	.	.
=19-	=19-	=19-	=19-	=19-	=19-	=19-	=19-	=19-	=19-	=19-	=19-	=19-	=19-	=19-	=19-	=19-	=19-	=19-	=19-	=19-	=19-	=19-	=19-
.	.	.	.	.	.	.	.	.	.	.	.	00r	.	.	00r	.	.	00r	.	.	00r	.	.
2d\	au-	-nis	2f\	au-	-nis	4a\	au-	-nis	2dd\	au-	-nis	.	.	.	.	.	.	.	.	.	.	.	.
.	.	.	.	.	.	4b\	.	.	.	.	.	.	.	.	.	.	.	.	.	.	.	.	.
=20-	=20-	=20-	=20-	=20-	=20-	=20-	=20-	=20-	=20-	=20-	=20-	=20-	=20-	=20-	=20-	=20-	=20-	=20-	=20-	=20-	=20-	=20-	=20-
2c/	-di-	Ve-	2g\	-di-	Ve-	2cc\	-di-	Ve-	2ee\	-di-	Ve-	.	.	.	.	.	.	.	.	.	.	.	.
!	!	!	!LO:SIC:v:t=custos f	!	!	!	!	!	!	!	!	!	!	!	!	!	!	!	!	!	!	!	!
2A/	-tu	-rus	2a\	-tu	-rus	2cc\	-tu	-rus	2ff\	-tu	-rus	.	.	.	.	.	.	.	.	.	.	.	.
!	!	!	!LO:LB:g=original	!	!	!	!	!	!	!	!	!	!	!	!	!	!	!	!	!	!	!	!
=21-	=21-	=21-	=21-	=21-	=21-	=21-	=21-	=21-	=21-	=21-	=21-	=21-	=21-	=21-	=21-	=21-	=21-	=21-	=21-	=21-	=21-	=21-	=21-
1B-X	so-	Vi-	2f\	so-	Vi-	1dd	so-	Vi-	1dd	so-	Vi-	.	.	.	.	.	.	.	.	.	.	.	.
.	.	.	2g\	.	.	.	.	.	.	.	.	.	.	.	.	.	.	.	.	.	.	.	.
=22-	=22-	=22-	=22-	=22-	=22-	=22-	=22-	=22-	=22-	=22-	=22-	=22-	=22-	=22-	=22-	=22-	=22-	=22-	=22-	=22-	=22-	=22-	=22-
2A/	-lo	-tam	2a\	-lo	-tam	2cc\	-lo	-tae	2ee\	-lo	-tae	.	.	.	.	.	.	.	.	.	.	.	.
1F/	in	prae-	1a\	in	prae-	1cc\	in	prae-	2ff\	in	prae-	.	.	.	.	.	.	.	.	.	.	.	.
=23-	=23-	=23-	=23-	=23-	=23-	=23-	=23-	=23-	=23-	=23-	=23-	=23-	=23-	=23-	=23-	=23-	=23-	=23-	=23-	=23-	=23-	=23-	=23-
.	.	.	.	.	.	.	.	.	4ff\	te	-stans	0r	.	.	0r	.	.	0r	.	.	0r	.	.
.	.	.	.	.	.	.	.	.	4ee\	.	.	.	.	.	.	.	.	.	.	.	.	.	.
!	!	!	!	!	!	!LO:SIC:v:t=custos a	!	!	!	!	!	!	!	!	!	!	!	!	!	!	!	!	!
2G/	te	-stans	4g\	te	-stans	2b-X\	te	-stans	1dd\	cre-	ho-	.	.	.	.	.	.	.	.	.	.	.	.
.	.	.	4f\	.	.	.	.	.	.	.	.	.	.	.	.	.	.	.	.	.	.	.	.
!	!	!	!	!	!	!LO:LB:g=original	!	!	!	!	!	!	!	!	!	!	!	!	!	!	!	!	!
=24-	=24-	=24-	=24-	=24-	=24-	=24-	=24-	=24-	=24-	=24-	=24-	=24-	=24-	=24-	=24-	=24-	=24-	=24-	=24-	=24-	=24-	=24-	=24-
2.A/	cre-	ho-	2.e/	cre-	ho-	2.a\	cre-	ho-	.	.	.	.	.	.	.	.	.	.	.	.	.	.	.
!	!	!	!	!	!	!	!	!	!LO:TX:a:t=P:problem:# above	!	!	!	!	!	!	!	!	!	!	!	!	!	!
.	.	.	.	.	.	.	.	.	2cc#X\	-di-	-mi-	.	.	.	.	.	.	.	.	.	.	.	.
4A/	-di-	-mi-	4e/	-di-	-mi-	4a\	-di-	-mi-	.	.	.	.	.	.	.	.	.	.	.	.	.	.	.
=25-	=25-	=25-	=25-	=25-	=25-	=25-	=25-	=25-	=25-	=25-	=25-	=25-	=25-	=25-	=25-	=25-	=25-	=25-	=25-	=25-	=25-	=25-	=25-
!LO:SIC:v:t=custos c	!	!	!LO:TX:b:t=P:problem:# below	!	!	!	!	!	!LO:SIC:v:t=custos ee	!	!	!	!	!	!	!	!	!	!	!	!	!	!
1d	-tur	-ni	1f#X	-tur	-ni	1a	-tur	-ni	1dd	-tur	-ni	2r	.	.	2r	.	.	2r	.	.	2r	.	.
.	.	.	.	.	.	.	.	.	.	.	.	1d\	Cre-	Prae-	1fny\	Cre-	Prae-	1a\	Cre-	Prae-	1dd\	Cre-	Prae-
!LO:PB:g=original	!	!	!	!	!	!	!	!	!LO:PB:g=original	!	!	!	!	!	!	!	!	!	!	!	!	!	!
=26-	=26-	=26-	=26-	=26-	=26-	=26-	=26-	=26-	=26-	=26-	=26-	=26-	=26-	=26-	=26-	=26-	=26-	=26-	=26-	=26-	=26-	=26-	=26-
00r	.	.	00r	.	.	00r	.	.	00r	.	.	.	.	.	.	.	.	.	.	.	.	.	.
.	.	.	.	.	.	.	.	.	.	.	.	2d\	-do	-sta	2f\	-do	-sta	4a\	-do	-sta	2dd\	-do	-sta
.	.	.	.	.	.	.	.	.	.	.	.	.	.	.	.	.	.	4bny\	.	.	.	.	.
=27-	=27-	=27-	=27-	=27-	=27-	=27-	=27-	=27-	=27-	=27-	=27-	=27-	=27-	=27-	=27-	=27-	=27-	=27-	=27-	=27-	=27-	=27-	=27-
.	.	.	.	.	.	.	.	.	.	.	.	2c/	quid-	me-	2g\	quid-	me-	2cc\	quid-	me-	2ee\	quid-	me-
.	.	.	.	.	.	.	.	.	.	.	.	2A/	-quid	-ae	2a\	-quid	-ae	2cc\	-quid	-ae	2ff\	-quid	-ae
=28-	=28-	=28-	=28-	=28-	=28-	=28-	=28-	=28-	=28-	=28-	=28-	=28-	=28-	=28-	=28-	=28-	=28-	=28-	=28-	=28-	=28-	=28-	=28-
.	.	.	.	.	.	.	.	.	.	.	.	4G/	di-	men-	1b-X	di-	men-	1dd	di-	men-	1gg	di-	men-
.	.	.	.	.	.	.	.	.	.	.	.	4A/	.	.	.	.	.	.	.	.	.	.	.
!	!	!	!	!	!	!	!	!	!	!	!	!LO:SIC:v:s=4B-/	!	!	!	!	!	!	!	!	!	!	!
.	.	.	.	.	.	.	.	.	.	.	.	4B/	.	.	.	.	.	.	.	.	.	.	.
.	.	.	.	.	.	.	.	.	.	.	.	4c/	.	.	.	.	.	.	.	.	.	.	.
=29-	=29-	=29-	=29-	=29-	=29-	=29-	=29-	=29-	=29-	=29-	=29-	=29-	=29-	=29-	=29-	=29-	=29-	=29-	=29-	=29-	=29-	=29-	=29-
.	.	.	.	.	.	.	.	.	.	.	.	2d\	-xit	-ti	2a\	-xit	-ti	4a\	-xit	-ti	2ff\	-xit	-ti
.	.	.	.	.	.	.	.	.	.	.	.	.	.	.	.	.	.	4b\	.	.	.	.	.
.	.	.	.	.	.	.	.	.	.	.	.	1c\	De-	de	1cc\	De-	de	1cc\	De-	de	1ee\	De-	de
=30-	=30-	=30-	=30-	=30-	=30-	=30-	=30-	=30-	=30-	=30-	=30-	=30-	=30-	=30-	=30-	=30-	=30-	=30-	=30-	=30-	=30-	=30-	=30-
0r	.	.	0r	.	.	0r	.	.	0r	.	.	.	.	.	.	.	.	.	.	.	.	.	.
.	.	.	.	.	.	.	.	.	.	.	.	2F/	-i	te	2a\	-i	te	2cc,<\	-i	te	2ff\	-i	te
=31-	=31-	=31-	=31-	=31-	=31-	=31-	=31-	=31-	=31-	=31-	=31-	=31-	=31-	=31-	=31-	=31-	=31-	=31-	=31-	=31-	=31-	=31-	=31-
.	.	.	.	.	.	.	.	.	.	.	.	2c/	Fi-	Vi-	2g\	Fi-	Vi-	2cc\	Fi-	Vi-	2ee\	Fi-	vi-
.	.	.	.	.	.	.	.	.	.	.	.	2d\	-li-	-ue-	2f\	-li-	-ve-	4a\	-li-	-ue-	2dd\	-li-	-ue-
.	.	.	.	.	.	.	.	.	.	.	.	.	.	.	.	.	.	4b\	.	.	.	.	.
=32-	=32-	=32-	=32-	=32-	=32-	=32-	=32-	=32-	=32-	=32-	=32-	=32-	=32-	=32-	=32-	=32-	=32-	=32-	=32-	=32-	=32-	=32-	=32-
!	!	!	!	!	!	!	!	!	!	!	!	!LO:SIC:v:t=custos c	!	!	!	!	!	!	!	!	!	!	!
2r	.	.	2r	.	.	2r	.	.	2r	.	.	1c	-us	-re	1g	-us	-re	1cc	-us.	-re	1ee	-us	-re
2c/	Cre-	Prae-	2g\	Cre-	Prae-	2cc\	Cre-	Prae-	2ee\	Cre-	Prae-	.	.	.	.	.	.	.	.	.	.	.	.
!	!	!	!	!	!	!	!	!	!	!	!	!LO:LB:g=original	!	!	!	!	!	!	!	!	!	!	!
=33-	=33-	=33-	=33-	=33-	=33-	=33-	=33-	=33-	=33-	=33-	=33-	=33-	=33-	=33-	=33-	=33-	=33-	=33-	=33-	=33-	=33-	=33-	=33-
1c	-do	-sta	1g	-do	-sta	2.cc\	-do	-sta	1ee	-do.	-sta	00r	.	.	00r	.	.	00r	.	.	00r	.	.
.	.	.	.	.	.	4bny\	.	.	.	.	.	.	.	.	.	.	.	.	.	.	.	.	.
=34-	=34-	=34-	=34-	=34-	=34-	=34-	=34-	=34-	=34-	=34-	=34-	=34-	=34-	=34-	=34-	=34-	=34-	=34-	=34-	=34-	=34-	=34-	=34-
2d\	quid-	me-	4fny\	.	.	2a\	quid-	me-	2ee\	quid-	me-	.	.	.	.	.	.	.	.	.	.	.	.
.	.	.	4g\	.	.	.	.	.	.	.	.	.	.	.	.	.	.	.	.	.	.	.	.
2f\	-quid	-ae	2.a\	quid-	me-	2a\	-quid	-ae	4ccny\	-quid	-ae	.	.	.	.	.	.	.	.	.	.	.	.
.	.	.	.	.	.	.	.	.	4dd\	.	.	.	.	.	.	.	.	.	.	.	.	.	.
=35-	=35-	=35-	=35-	=35-	=35-	=35-	=35-	=35-	=35-	=35-	=35-	=35-	=35-	=35-	=35-	=35-	=35-	=35-	=35-	=35-	=35-	=35-	=35-
1e	di-	men-	.	.	.	1b	di-	men-	1ee	di-	men-	.	.	.	.	.	.	.	.	.	.	.	.
.	.	.	8g\L	-quid	-ae	.	.	.	.	.	.	.	.	.	.	.	.	.	.	.	.	.	.
.	.	.	8f\J	.	.	.	.	.	.	.	.	.	.	.	.	.	.	.	.	.	.	.	.
.	.	.	2g\	di-	men-	.	.	.	.	.	.	.	.	.	.	.	.	.	.	.	.	.	.
=36-	=36-	=36-	=36-	=36-	=36-	=36-	=36-	=36-	=36-	=36-	=36-	=36-	=36-	=36-	=36-	=36-	=36-	=36-	=36-	=36-	=36-	=36-	=36-
2A/	-xit	-ti	2a\	-xit	-ti	2cc\	-xit	-ti	2ee\	-xit	-ti	.	.	.	.	.	.	.	.	.	.	.	.
1c\	De-	de	1g\	De-	de	1cc\	De-	de	2ee\	De-	de	.	.	.	.	.	.	.	.	.	.	.	.
=37-	=37-	=37-	=37-	=37-	=37-	=37-	=37-	=37-	=37-	=37-	=37-	=37-	=37-	=37-	=37-	=37-	=37-	=37-	=37-	=37-	=37-	=37-	=37-
.	.	.	.	.	.	.	.	.	2ee\	-i	te	00r	.	.	00r	.	.	00r	.	.	0r	.	.
2d\	-i	te	2f\	-i	te	4a\	-i	te	2.ff\	Fi-	Vi-	.	.	.	.	.	.	.	.	.	.	.	.
.	.	.	.	.	.	4b\	.	.	.	.	.	.	.	.	.	.	.	.	.	.	.	.	.
=38-	=38-	=38-	=38-	=38-	=38-	=38-	=38-	=38-	=38-	=38-	=38-	=38-	=38-	=38-	=38-	=38-	=38-	=38-	=38-	=38-	=38-	=38-	=38-
2.c/	Fi-	Vi-	2.g\	Fi-	Vi-	2.cc\	Fi-	Vi-	.	.	.	.	.	.	.	.	.	.	.	.	.	.	.
.	.	.	.	.	.	.	.	.	8ee\L	.	.	.	.	.	.	.	.	.	.	.	.	.	.
.	.	.	.	.	.	.	.	.	8dd\J	.	.	.	.	.	.	.	.	.	.	.	.	.	.
.	.	.	.	.	.	.	.	.	2ee\	-li-	-ue-	.	.	.	.	.	.	.	.	.	.	.	.
4c/	-li-	-ue-	4g\	-li-	-ue-	4cc\	-li-	-ue-	.	.	.	.	.	.	.	.	.	.	.	.	.	.	.
=39-	=39-	=39-	=39-	=39-	=39-	=39-	=39-	=39-	=39-	=39-	=39-	=39-	=39-	=39-	=39-	=39-	=39-	=39-	=39-	=39-	=39-	=39-	=39-
!	!	!	!LO:SIC:v:t=custos e	!	!	!	!	!	!	!	!	!	!	!	!	!	!	!	!	!	!LO:TX:t=P:problem:nieczytelne źródło	!	!
1F	-us	-re	1a	-us	-re.	1cc	-us	-re.	1ff	-us	-re.	.	.	.	.	.	.	.	.	.	1ryy	.	.
!	!	!	!LO:PB:g=original	!	!	!	!	!	!	!	!	!	!	!	!	!	!	!	!	!	!	!	!
=40-	=40-	=40-	=40-	=40-	=40-	=40-	=40-	=40-	=40-	=40-	=40-	=40-	=40-	=40-	=40-	=40-	=40-	=40-	=40-	=40-	=40-	=40-	=40-
00r	.	.	00r	.	.	00r	.	.	00r	.	.	.	.	.	.	.	.	.	.	.	2ccny\	Ver-	te-
.	.	.	.	.	.	.	.	.	.	.	.	.	.	.	.	.	.	.	.	.	2cc\	-bo	-q(ue)
=41-	=41-	=41-	=41-	=41-	=41-	=41-	=41-	=41-	=41-	=41-	=41-	=41-	=41-	=41-	=41-	=41-	=41-	=41-	=41-	=41-	=41-	=41-	=41-
.	.	.	.	.	.	.	.	.	.	.	.	0r	.	.	0r	.	.	0r	.	.	2dd\	ve-	il-
.	.	.	.	.	.	.	.	.	.	.	.	.	.	.	.	.	.	.	.	.	2dd\	-ri-	-li
=42-	=42-	=42-	=42-	=42-	=42-	=42-	=42-	=42-	=42-	=42-	=42-	=42-	=42-	=42-	=42-	=42-	=42-	=42-	=42-	=42-	=42-	=42-	=42-
.	.	.	.	.	.	.	.	.	.	.	.	.	.	.	.	.	.	.	.	.	1ee	-ta-	sem-
=43-	=43-	=43-	=43-	=43-	=43-	=43-	=43-	=43-	=43-	=43-	=43-	=43-	=43-	=43-	=43-	=43-	=43-	=43-	=43-	=43-	=43-	=43-	=43-
!	!	!	!	!	!	!	!	!	!	!	!	!	!	!	!	!	!	!LO:SIC:v:t=custos cc	!	!	!LO:SIC:v:t=custos dd	!	!
.	.	.	.	.	.	.	.	.	.	.	.	1r	.	.	1r	.	.	1r	.	.	1ee	-tis	-per
!	!	!	!	!	!	!	!	!	!	!	!	!	!	!	!	!	!	!LO:PB:g=original	!	!	!LO:LB:g=original	!	!
=44-	=44-	=44-	=44-	=44-	=44-	=44-	=44-	=44-	=44-	=44-	=44-	=44-	=44-	=44-	=44-	=44-	=44-	=44-	=44-	=44-	=44-	=44-	=44-
2c/	ni-	dul-	2e/	ni-	dul-	2cc\	ni-	dul-	2ee\	ni-	dul-	2c/	ni-	dul-	2g\	ni-	dul-	2cc\	ni-	dul-	0r	.	.
2f\	-hil	-ce	2c/	-hil	-ce	4a\	-hil	-ce	2ff\	-hil	-ce	2F/	-hil	-ce	2a\	-hil	-ce	2cc\	-hil	-ce	.	.	.
.	.	.	.	.	.	4b\	.	.	.	.	.	.	.	.	.	.	.	.	.	.	.	.	.
=45-	=45-	=45-	=45-	=45-	=45-	=45-	=45-	=45-	=45-	=45-	=45-	=45-	=45-	=45-	=45-	=45-	=45-	=45-	=45-	=45-	=45-	=45-	=45-
2.c/	Ve-	sa-	2.e/	Ve-	sa-	2.cc\	Ve-	sa-	2.ee\	Ve-	sa-	2.c/	Ve-	sa-	2.g\	Ve-	sa-	2.cc\	ve-	sa-	.	.	.
4c/	-ri-	-pe-	4g\	-ri-	-pe-	4cc\	-ri-	-pe-	4ee\	-ri-	-pe-	4c/	-ri-	-pe-	4g\	-ri-	-pe-	4cc\	-ri-	-pe-	.	.	.
=46-	=46-	=46-	=46-	=46-	=46-	=46-	=46-	=46-	=46-	=46-	=46-	=46-	=46-	=46-	=46-	=46-	=46-	=46-	=46-	=46-	=46-	=46-	=46-
!	!	!	!	!	!	!LO:SIC:v:t=custos dd	!	!	!	!	!	!	!	!	!	!	!	!	!	!	!	!	!
1g	-us	-re	1g	-us	-re.	1b	-us.	-re.	1dd	-us	-re.	1G	-us	-re	1g	-us	-re.	1dd	-us	-re.	1r	.	.
!	!	!	!	!	!	!LO:LB:g=original	!	!	!	!	!	!	!	!	!	!	!	!	!	!	!	!	!
=47-	=47-	=47-	=47-	=47-	=47-	=47-	=47-	=47-	=47-	=47-	=47-	=47-	=47-	=47-	=47-	=47-	=47-	=47-	=47-	=47-	=47-	=47-	=47-
00r	.	.	00r	.	.	00r	.	.	00r	.	.	00r	.	.	00r	.	.	00r	.	.	2dd\	Ver-	te-
.	.	.	.	.	.	.	.	.	.	.	.	.	.	.	.	.	.	.	.	.	2dd\	-bo	-q(ue)
=48-	=48-	=48-	=48-	=48-	=48-	=48-	=48-	=48-	=48-	=48-	=48-	=48-	=48-	=48-	=48-	=48-	=48-	=48-	=48-	=48-	=48-	=48-	=48-
.	.	.	.	.	.	.	.	.	.	.	.	.	.	.	.	.	.	.	.	.	2ee\	Ve-	il-
.	.	.	.	.	.	.	.	.	.	.	.	.	.	.	.	.	.	.	.	.	2ee\	-ri-	-li
=49-	=49-	=49-	=49-	=49-	=49-	=49-	=49-	=49-	=49-	=49-	=49-	=49-	=49-	=49-	=49-	=49-	=49-	=49-	=49-	=49-	=49-	=49-	=49-
.	.	.	.	.	.	.	.	.	.	.	.	.	.	.	.	.	.	.	.	.	1ff	-ta-	sem-
=50-	=50-	=50-	=50-	=50-	=50-	=50-	=50-	=50-	=50-	=50-	=50-	=50-	=50-	=50-	=50-	=50-	=50-	=50-	=50-	=50-	=50-	=50-	=50-
.	.	.	.	.	.	.	.	.	.	.	.	.	.	.	.	.	.	.	.	.	1ff	-tis	-per
=51-	=51-	=51-	=51-	=51-	=51-	=51-	=51-	=51-	=51-	=51-	=51-	=51-	=51-	=51-	=51-	=51-	=51-	=51-	=51-	=51-	=51-	=51-	=51-
2d\	ni-	dul-	2.f\	ni-	dul-	2dd\	ni-	dul-	2ff\	ni-	dul-	2d\	ni-	dul-	2a\	ni-	dul-	2dd\	ni-	dul-	0r	.	.
!LO:SIC:v:t=custos e	!	!	!	!	!	!	!	!	!LO:SIC:v:t=custos ee	!	!	!	!	!	!LO:SIC:v:t=custos g#	!	!	!	!	!	!	!	!
2a\	-hil	-ce	.	.	.	2ee\	-hil	-ce	2ee\	-hil	-ce	2A/	-hil	-ce	2a\	-hil	-ce	2cc\	-hil	-ce	.	.	.
.	.	.	4d/	-hil	-ce	.	.	.	.	.	.	.	.	.	.	.	.	.	.	.	.	.	.
!LO:LB:g=original	!	!	!	!	!	!	!	!	!LO:LB:g=original	!	!	!	!	!	!LO:LB:g=original	!	!	!	!	!	!	!	!
=52-	=52-	=52-	=52-	=52-	=52-	=52-	=52-	=52-	=52-	=52-	=52-	=52-	=52-	=52-	=52-	=52-	=52-	=52-	=52-	=52-	=52-	=52-	=52-
!	!	!	!	!	!	!	!	!	!	!	!	!	!	!	!LO:TX:b:t=P:problem:# below	!	!	!	!	!	!	!	!
2.e\	Ve-	sa-	2.e/	Ve-	sa-	2.ee\	Ve-	sa-	2.ee\	Ve-	sa-	2.e\	Ve-	sa-	2.g#X\	Ve-	sa-	2.b\	ve-	sa-	.	.	.
4e\	-ri-	-pe-	4e/	-ri-	-pe-	4ee\	-ri-	-pe-	4ee\	-ri-	-pe-	4e\	-ri-	-pe-	4g#\	-ri-	-pe-	4b\	-ri-	-pe-	.	.	.
=53-	=53-	=53-	=53-	=53-	=53-	=53-	=53-	=53-	=53-	=53-	=53-	=53-	=53-	=53-	=53-	=53-	=53-	=53-	=53-	=53-	=53-	=53-	=53-
!	!	!	!	!	!	!	!	!	!	!	!	!	!	!	!	!	!	!LO:TX:b:t=P:problem:# below	!	!	!	!	!
1a	-us	-re	1e	-us	-re.	1ee	-us.	-re	1ee	-us	-re.	1A	-us	-re.	1a	-us	-re.	1cc#X	-us	-re.	1r	.	.
=54-	=54-	=54-	=54-	=54-	=54-	=54-	=54-	=54-	=54-	=54-	=54-	=54-	=54-	=54-	=54-	=54-	=54-	=54-	=54-	=54-	=54-	=54-	=54-
00r	.	.	00r	.	.	00r	.	.	00r	.	.	00r	.	.	00r	.	.	00r	.	.	2ee\	Ver-	te-
.	.	.	.	.	.	.	.	.	.	.	.	.	.	.	.	.	.	.	.	.	2ee\	-bo	-q(ue)
=55-	=55-	=55-	=55-	=55-	=55-	=55-	=55-	=55-	=55-	=55-	=55-	=55-	=55-	=55-	=55-	=55-	=55-	=55-	=55-	=55-	=55-	=55-	=55-
.	.	.	.	.	.	.	.	.	.	.	.	.	.	.	.	.	.	.	.	.	2ff\	ve-	il-
.	.	.	.	.	.	.	.	.	.	.	.	.	.	.	.	.	.	.	.	.	2ff\	-ri-	-li
=56-	=56-	=56-	=56-	=56-	=56-	=56-	=56-	=56-	=56-	=56-	=56-	=56-	=56-	=56-	=56-	=56-	=56-	=56-	=56-	=56-	=56-	=56-	=56-
.	.	.	.	.	.	.	.	.	.	.	.	.	.	.	.	.	.	.	.	.	1gg	-ta-	sem-
=57-	=57-	=57-	=57-	=57-	=57-	=57-	=57-	=57-	=57-	=57-	=57-	=57-	=57-	=57-	=57-	=57-	=57-	=57-	=57-	=57-	=57-	=57-	=57-
.	.	.	.	.	.	.	.	.	.	.	.	.	.	.	.	.	.	.	.	.	1gg	-tis	-per
=58-	=58-	=58-	=58-	=58-	=58-	=58-	=58-	=58-	=58-	=58-	=58-	=58-	=58-	=58-	=58-	=58-	=58-	=58-	=58-	=58-	=58-	=58-	=58-
2c/	ni-	dul-	2e/	ni-	dul-	2cc\	ni-	dul-	2gg\	ni-	dul-	2c/	ni-	dul-	2gny\	ni-	dul-	2ccny\	ni-	dul-	0r	.	.
2f\	-hil	-ce	2c/	-hil	-ce	4a\	-hil	-ce	2ff\	-hil	-ce	2F/	-hil	-ce	2a\	-hil	-ce	2cc\	-hil	-ce	.	.	.
.	.	.	.	.	.	4b\	.	.	.	.	.	.	.	.	.	.	.	.	.	.	.	.	.
=59-	=59-	=59-	=59-	=59-	=59-	=59-	=59-	=59-	=59-	=59-	=59-	=59-	=59-	=59-	=59-	=59-	=59-	=59-	=59-	=59-	=59-	=59-	=59-
2.c/	Ve-	sa-	2.e/	Ve-	sa-	2.cc\	Ve-	sa-	2.ee\	Ve-	sa-	2.c/	Ve-	sa-	2.g\	Ve-	sa-	2.cc\	ve-	sa-	.	.	.
4c/	-ri-	-pe-	4e/	-ri-	-pe-	4cc\	-ri-	-pe-	4ee\	-ri-	-pe-	4c/	-ri-	-pe-	4g\	-ri-	-pe-	4cc\	-ri-	-pe-	.	.	.
=60-	=60-	=60-	=60-	=60-	=60-	=60-	=60-	=60-	=60-	=60-	=60-	=60-	=60-	=60-	=60-	=60-	=60-	=60-	=60-	=60-	=60-	=60-	=60-
2g\	-us	-re	2g\	-us	-re.	2b\	-us	-re	2dd\	-us	-re.	2G/	-us	-re	2g,<\	-us	-re	2dd\	-us	re.	2r	.	.
1g\	ni-	dul-	1d/	ni-	dul-	1b-X\	ni-	dul-	1dd\	ni-	dul-	1G/	ni-	dul-	1g\	ni-	dul-	1dd\	ni-	dul-	1gg\	ni-	dul-
=61-	=61-	=61-	=61-	=61-	=61-	=61-	=61-	=61-	=61-	=61-	=61-	=61-	=61-	=61-	=61-	=61-	=61-	=61-	=61-	=61-	=61-	=61-	=61-
2d\	-hil	-ce	2d/	-hil	-ce	2a\	-hil	-ce	2dd\	-hil	-ce	2d\	-hil	-ce	2a\	-hil	-ce	2a\	-hil	-ce	2ff\	-hil	-ce
=62-	=62-	=62-	=62-	=62-	=62-	=62-	=62-	=62-	=62-	=62-	=62-	=62-	=62-	=62-	=62-	=62-	=62-	=62-	=62-	=62-	=62-	=62-	=62-
!	!	!	!	!	!	!	!	!	!LO:TX:b:t=P:problem:# below	!	!	!	!	!	!	!	!	!	!	!	!	!	!
1.a	Ve-	sa-	1.e	Ve-	sa-	1.a	Ve-	sa-	1.cc#X	Ve-	sa-	1.A	Ve-	sa-	1.a	Ve-	sa-	1.a	ve-	sa-	1.ee	ve-	sa-
=63-	=63-	=63-	=63-	=63-	=63-	=63-	=63-	=63-	=63-	=63-	=63-	=63-	=63-	=63-	=63-	=63-	=63-	=63-	=63-	=63-	=63-	=63-	=63-
2a\	-ri-	-pe-	2e/	-ri-	-pe-	2a\	-ri-	-pe-	2cc#y\	-ri-	-pe-	2A/	-ri-	-pe-	2e/	-ri-	-pe-	2a\	-ri-	-pe-	2ee\	-ri-	-pe-
=64-	=64-	=64-	=64-	=64-	=64-	=64-	=64-	=64-	=64-	=64-	=64-	=64-	=64-	=64-	=64-	=64-	=64-	=64-	=64-	=64-	=64-	=64-	=64-
1dl;;	-us.	-re.	1fl;;	-us.	-re.	1al;;	-us.	-re.	1ddl;;	-us.	-re	1dl;;	-us.	-re.	1al;;	-us.	-re	1al;;	-us-	-re.	1ddl;;	-us	-re.
==	==	==	==	==	==	==	==	==	==	==	==	==	==	==	==	==	==	==	==	==	==	==	==
*-	*-	*-	*-	*-	*-	*-	*-	*-	*-	*-	*-	*-	*-	*-	*-	*-	*-	*-	*-	*-	*-	*-	*-
!!!system-decoration: [(g1)][(g2)]
!!!RDF**kern: > = above
!!!RDF**kern: < = below
!!!RDF**kern: l = terminal long
!!!AIN: 8 empty
!!!ENC: Anastazja Marusiak
!!!END: 2021-10-07
!!!ENC: Andrzej Kubiczek
!!!END: 2021-10-19
